X: 28113
T: Mr. Worthland's
R: strathspey
M: 4/4
K: Aminor
A/G/|E<AA>A A>GA>e|d2d>c c>GG2|E<AA>A A>GA>e|e>cd>e c<AA>G|
E<AA>A A>GA>e|d2d>c c>GG2|E<AA>A A>GA>e|e>cd>e c<AAB||
A>aa2 A>aa2|G>gg2 G>gg2|A>aa2 A>aa2|g>e ed/c/ B<AA>g|
(3aba (3gag (3ege c>e|eg/e/ de/d/ c>GG2|c>Ac>d e>de>a|g>ed>e c<AA||

